!! 00000] TT[WS
!!!OTL: Fangjin zhangsheng lai
!!!ARE: Asia, China, Shanxi Jinzhong
!! Ethnic Group: Han
!! WII, 204
!!!SCT: J0705
!!!YEM: Copyright 1995, estate of Helmut Schaffrath.
**kern
*ICvox
*Ivox
*M2/4
*k[b-]
*F:
{16cc
16cc
16cc
16dd
16ff
16gg
16ff
16dd
=1
8.cc
16dd
8a
16g
16a
=2
16cc
16cc
16cc
16dd
16ff
16gg
16ff
16dd
=3
8.cc
16dd
8a
16g
16a}
=4
{16cc
16a
4cc
16dd
16ff
=5
8dd
8cc
8cc
8g
=6
16a
16cc
16a
16g
16a
16cc
16a
16g
=7
8.f
16g
4f}
=8
{16a
16g
8f
8.g
16a
=9
8.cc
16dd
8.ff
16a
=10
8g
8a
16g
16a
16g
16f
=11
16g
16f
4d
16d
16f
=12
8.g
16a
8f
8d
=13
8cc
16dd
16ff
4cc}
==
!!!AGN: Xiaodiao, Shidiao. Fengsu, Sichun
!!!ONB: ESAC (Essen Associative Code) Database: CHINA
!!!AMT: simple duple
!!!AIN: vox
!!!EED: Helmut Schaffrath
!!!EEV: 1.0
*-
